!!! OTL: Berkowitz556
!!! Chapter: 1
!!! Section: V
!!! Page: 141
!!! Mode: 
!!! Encoder: DJB
**kern
*staff1
*I"Piano
=1-
*clefG2
*k[]
*C:
*M4/4
4e-/
4a-/
4dd-\
4r
=2
4cc\
4g/
4d/
4r
=3
4r
4c#/
4f#/
4b\
=4
2b-\
2f/
=5
4g-/
4d-/
4A-/
4r
=6
4G/
4c/
4f/
4r
=7
4d/
4e/
4a/
4g#/
=8
4g/
4cc\
4b\
4r
==
*-
